!!!COM: Corelli, Arcangelo
!!!OTL: 
!!!ONM: Opus 6, No. 5
!!!OMV: 1
!!!CDT: 1653/2/17/-1713/1/8/
!!!OCY: Italia
**kern	**kern	**kern	**kern	**kern	**kern	**kern
*clefC	*clefG	*clefG	*clefG	*clefC	*clefG	*clefG
*k[b-]	*k[b-]	*k[b-]	*k[b-]	*k[b-]	*k[b-]	*k[b-]
*F:	*F:	*F:	*F:	*F:	*F:	*F:
*M4/4	*M4/4	*M4/4	*M4/4	*M4/4	*M4/4	*M4/4
=1	=1	=1	=1	=1	=1	=1
4BB-	4B-	4d	4f	4BB-	4d	4f
8r	8r	8r	8r	8r	8r	8r
8B-	8B-	8f	8dd	8B-	8f	8dd
8A	8f	8f	8cc	8A	8f	8cc
8B-	8f	8b-	8dd	8B-	8b-	8dd
8F	8f	8a	8cc	8F	8a	8cc
8BB-	8f	8b-	8dd	8BB-	8b-	8dd
=2	=2	=2	=2	=2	=2	=2
4F	4f	4a	4cc	4F	4a	4cc
4r	4r	4r	4r	4r	4r	4r
4G	4d	4d	4b-	4G	4d	4b-
8r	8r	8r	8r	8r	8r	8r
8D	8B-	8f	8b-	8D	8f	8b-
=3	=3	=3	=3	=3	=3	=3
8E-	8e-	8g	8cc	8E-	8g	8cc
8D	8B-	8f	8b-	8D	8f	8b-
8E-	8e-	8g	8cc	8E-	8g	8cc
8D	8B-	8f	8b-	8D	8f	8b-
4C	4c	4e-	4a	4C	4e-	4a
8r	8r	8r	8r	8r	8r	8r
8BB-	8f	8d	8b-	8BB-	8d	8b-
=4	=4	=4	=4	=4	=4	=4
4F	4f	4a	4cc	4F	4a	4cc
8r	8r	8r	8r	8r	8r	8r
8BB-	8f	8b-	8dd	8BB-	8b-	8dd
4F	4f	4a	4cc	4F	4a	4cc
8r	8r	8r	8r	8r	8r	8r
8D	8B-	8dd	8ff	8D	8dd	8ff
=5	=5	=5	=5	=5	=5	=5
4G	4B-	8dd	8ff	4G	8dd	8ff
.	.	8g	8b-	.	8g	8b-
8r	8r	8.cc	8.ee-	8r	8.cc	8.ee-
8C	8c	.	.	8C	.	.
.	.	16cc	16ee-	.	16cc	16ee-
4F	4c	4a	4cc	4F	4a	4cc
8r	8r	8r	8r	8r	8r	8r
8D	8f	8ff	8dd	8D	8ff	8dd
=6	=6	=6	=6	=6	=6	=6
4E-	4g	4b-	4g	4E-	4b-	4g
8r	8r	8r	8r	8r	8r	8r
8E	8c	8cc	8gg	8E	8cc	8gg
4F	4c	4a	4cc	4F	4a	4cc
8r	8r	8r	8r	8r	8r	8r
8B-	8B-	8ff	8dd	8B-	8ff	8dd
=7	=7	=7	=7	=7	=7	=7
8E-	4B-	4ee-	8g	8E-	4ee-	8g
8F	.	.	8a	8F	.	8a
8G	8r	8dd	2b-	8G	8dd	2b-
8E-	8g	8cc	.	8E-	8cc	.
4F	4f	4dd	.	4F	4dd	.
4FF	4f	4cc	8.b-	4FF	4cc	8.b-
.	.	.	16a	.	.	16a
=8	=8	=8	=8	=8	=8	=8
4BB-	4d	4b-	4b-	4BB-	4b-	4b-
8r	8r	8r	8r	8r	8r	8r
8B-	8B-	8dd	8ff	8B-	8dd	8ff
8E-	4B-	8g	4ee-	8E-	8g	4ee-
8F	.	8a	.	8F	8a	.
8G	8r	[4b-	8dd	8G	[4b-	8dd
8E-	8g	.	8cc	8E-	.	8cc
=9	=9	=9	=9	=9	=9	=9
4F	4f	4b-]	4dd	4F	4b-]	4dd
4FF	4f	4a	4cc	4FF	4a	4cc
4BB-	4d	4b-	4b-	4B-	4b-	16bb-
.	.	.	.	.	.	16ff
.	.	.	.	.	.	16dd
.	.	.	.	.	.	16ff
4r	4r	4r	4r	4r	4r	16b-
.	.	.	.	.	.	16dd
.	.	.	.	.	.	16cc
.	.	.	.	.	.	16b-
=10	=10	=10	=10	=10	=10	=10
1r	1r	1r	1r	4A	16ff	4ff
.	.	.	.	.	16cc	.
.	.	.	.	.	16a	.
.	.	.	.	.	16cc	.
.	.	.	.	4r	16f	4r
.	.	.	.	.	16a	.
.	.	.	.	.	16g	.
.	.	.	.	.	16f	.
.	.	.	.	4G	4b-	16bb-
.	.	.	.	.	.	16aa
.	.	.	.	.	.	16gg
.	.	.	.	.	.	16ff
.	.	.	.	4C	4r	16ee
.	.	.	.	.	.	16gg
.	.	.	.	.	.	16ff
.	.	.	.	.	.	16ee
=11	=11	=11	=11	=11	=11	=11
2r	2r	2r	2r	4F	16aa	4aa
.	.	.	.	.	16ff	.
.	.	.	.	.	16cc	.
.	.	.	.	.	16ff	.
.	.	.	.	4FF	16a	4r
.	.	.	.	.	16cc	.
.	.	.	.	.	16b-	.
.	.	.	.	.	16a	.
8B-	4f	8dd	16bb-	8B-	8dd	16bb-
.	.	.	16ff	.	.	16ff
8BB-	.	8b-	16dd	8BB-	8b-	16dd
.	.	.	16ff	.	.	16ff
8D	4d	[4ff	16b-	8D	[4ff	16b-
.	.	.	16dd	.	.	16dd
8BB-	.	.	16cc	8BB-	.	16cc
.	.	.	16b-	.	.	16b-
=12	=12	=12	=12	=12	=12	=12
8E-	4B-	4ff]	2gg	8E-	4ff]	2gg
8F	.	.	.	8F	.	.
8G	4b-	2ee-	.	8G	2ee-	.
8A	.	.	.	8A	.	.
8B-	4.b-	.	2ff	8B-	.	2ff
8c	.	.	.	8c	.	.
8d	.	[4dd	.	8d	[4dd	.
8B-	8d	.	.	8B-	.	.
=13	=13	=13	=13	=13	=13	=13
8c	8e-	4dd]	2ee-	8c	4dd]	2ee-
8B-	8c	.	.	8B-	.	.
8A	4f	2cc	.	8A	2cc	.
8F	.	.	.	8F	.	.
8B-	2f	.	2dd	8B-	.	2dd
8c	.	.	.	8c	.	.
8d	.	[4b-	.	8d	[4b-	.
8e-	.	.	.	8e-	.	.
=14	=14	=14	=14	=14	=14	=14
8f	4.f	4b-]	2cc	8f	4b-]	2cc
8F	.	.	.	8F	.	.
8A	.	4.a	.	8A	4.a	.
8F	8A	.	.	8F	.	.
8G	4B-	.	2b-	8G	.	2b-
8F	.	8d	.	8F	8d	.
8E	4c	[4g	.	8E	[4g	.
8C	.	.	.	8C	.	.
=15	=15	=15	=15	=15	=15	=15
8F	4.c	8g]	4.a	8F	8g]	4.a
8G	.	8c	.	8G	8c	.
8A	.	8f	.	8A	8f	.
8F	8f	8a	8cc	8F	8a	8cc
8B-	4.f	8d	8dd	8B-	8d	8dd
8c	.	8e	8cc	8c	8e	8cc
8d	.	[4f	8b-	8d	[4f	8b-
8A	8c	.	8a	8A	.	8a
=16	=16	=16	=16	=16	=16	=16
8B-	8B-	4f]	2g	8B-	4f]	2g
8G	8G	.	.	8G	.	.
8c	4c	4e	.	8c	4e	.
8C	.	.	.	8C	.	.
8F	4A	16f	4f	8F	16f	4f
.	.	16e	.	.	16e	.
8G	.	16f	.	8G	16f	.
.	.	16g	.	.	16g	.
8F	4r	16a	4r	8F	16a	4r
.	.	16g	.	.	16g	.
8E-	.	16a	.	8E-	16a	.
.	.	16f	.	.	16f	.
=17	=17	=17	=17	=17	=17	=17
4D	8B-	4b-	16f	4D	4b-	16f
.	.	.	16b-	.	.	16b-
.	8c	.	16dd	.	.	16dd
.	.	.	16b-	.	.	16b-
4r	8d	4r	16f	4r	4r	16f
.	.	.	16d	.	.	16d
.	8B-	.	16f	.	.	16f
.	.	.	16b-	.	.	16b-
8E-	4e-	16g	4g	8E-	16g	4g
.	.	16f	.	.	16f	.
8F	.	16g	.	8F	16g	.
.	.	16a	.	.	16a	.
8G	4r	16b-	4r	8G	16b-	4r
.	.	16a	.	.	16a	.
8F	.	16b-	.	8F	16b-	.
.	.	16g	.	.	16g	.
=18	=18	=18	=18	=18	=18	=18
4E	8c	4cc	16g	4E	4cc	16g
.	.	.	16cc	.	.	16cc
.	8d	.	16b-	.	.	16b-
.	.	.	16cc	.	.	16cc
4r	8e	4r	16g	4r	4r	16g
.	.	.	16cc	.	.	16cc
.	8c	.	16b-	.	.	16b-
.	.	.	16cc	.	.	16cc
8F	4f	16a	4a	8F	16a	4a
.	.	16g	.	.	16g	.
8G	.	16a	.	8G	16a	.
.	.	16b-	.	.	16b-	.
8A	4r	16cc	4r	8A	16cc	4r
.	.	16b-	.	.	16b-	.
8G	.	16cc	.	8G	16cc	.
.	.	16a	.	.	16a	.
=19	=19	=19	=19	=19	=19	=19
4F#	8d	4dd	16a	4F#	4dd	16a
.	.	.	16dd	.	.	16dd
.	8e	.	16a	.	.	16a
.	.	.	16f#	.	.	16f#
4r	8f#	4r	16d	4r	4r	16d
.	.	.	16f#	.	.	16f#
.	8d	.	16a	.	.	16a
.	.	.	16dd	.	.	16dd
8G	4g	16b-	4b-	8G	16b-	4b-
.	.	16a	.	.	16a	.
8A	.	16b-	.	8A	16b-	.
.	.	16cc	.	.	16cc	.
8B-	4r	16dd	4r	8B-	16dd	4r
.	.	16cc	.	.	16cc	.
8A	.	16dd	.	8A	16dd	.
.	.	16b-	.	.	16b-	.
=20	=20	=20	=20	=20	=20	=20
4G	8g	4ee-	16b-	4G	4ee-	16b-
.	.	.	16ee-	.	.	16ee-
.	8a	.	16dd	.	.	16dd
.	.	.	16ee-	.	.	16ee-
4r	8b-	4r	16b-	4r	4r	16b-
.	.	.	16ee-	.	.	16ee-
.	8g	.	16dd	.	.	16dd
.	.	.	16ee-	.	.	16ee-
8A	4a	16cc	4cc	8A	16cc	4cc
.	.	16b-	.	.	16b-	.
8B-	.	16cc	.	8B-	16cc	.
.	.	16dd	.	.	16dd	.
8c	4r	16ee-	4r	8c	16ee-	4r
.	.	16dd	.	.	16dd	.
8B-	.	16ee-	.	8B-	16ee-	.
.	.	16cc	.	.	16cc	.
=21	=21	=21	=21	=21	=21	=21
4A	8a	4ff	16cc	4A	4ff	16cc
.	.	.	16ff	.	.	16ff
.	8b-	.	16cc	.	.	16cc
.	.	.	16a	.	.	16a
4r	8cc	4r	16f	4r	4r	16f
.	.	.	16a	.	.	16a
.	8a	.	16cc	.	.	16cc
.	.	.	16ff	.	.	16ff
4B-	4b-	16bb-	4dd	4B-	16bb-	4dd
.	.	16ff	.	.	16ff	.
.	.	16dd	.	.	16dd	.
.	.	16ff	.	.	16ff	.
4r	4r	16b-	4r	4r	16b-	4r
.	.	16dd	.	.	16dd	.
.	.	16cc	.	.	16cc	.
.	.	16b-	.	.	16b-	.
=22	=22	=22	=22	=22	=22	=22
4A	4f	4ff	16ff	4A	4ff	16ff
.	.	.	16cc	.	.	16cc
.	.	.	16a	.	.	16a
.	.	.	16cc	.	.	16cc
4r	4r	4r	16f	4r	4r	16f
.	.	.	16a	.	.	16a
.	.	.	16g	.	.	16g
.	.	.	16f	.	.	16f
4G	4g	16bb-	4b-	4G	16bb-	4b-
.	.	16aa	.	.	16aa	.
.	.	16gg	.	.	16gg	.
.	.	16ff	.	.	16ff	.
4C	4g	16ee	4r	4C	16ee	4r
.	.	16gg	.	.	16gg	.
.	.	16ff	.	.	16ff	.
.	.	16ee	.	.	16ee	.
=23	=23	=23	=23	=23	=23	=23
4F	2f	4aa	16aa	4F	4aa	16aa
.	.	.	16ff	.	.	16ff
.	.	.	16cc	.	.	16cc
.	.	.	16ff	.	.	16ff
4FF	.	4r	16a	4FF	4r	16a
.	.	.	16cc	.	.	16cc
.	.	.	16b-	.	.	16b-
.	.	.	16a	.	.	16a
8B-	4f	16bb-	8dd	8B-	16bb-	8dd
.	.	16ff	.	.	16ff	.
8BB-	.	16dd	8b-	8BB-	16dd	8b-
.	.	16ff	.	.	16ff	.
8D	4d	16b-	[4ff	8D	16b-	[4ff
.	.	16dd	.	.	16dd	.
8BB-	.	16cc	.	8BB-	16cc	.
.	.	16b-	.	.	16b-	.
=24	=24	=24	=24	=24	=24	=24
8E-	4B-	2gg	4ff]	8E-	2gg	4ff]
8F	.	.	.	8F	.	.
8G	4b-	.	2ee-	8G	.	2ee-
8A	.	.	.	8A	.	.
8B-	4.b-	2ff	.	8B-	2ff	.
8c	.	.	.	8c	.	.
8d	.	.	[4dd	8d	.	[4dd
8B-	8d	.	.	8B-	.	.
=25	=25	=25	=25	=25	=25	=25
8c	8e-	2ee-	4dd]	8c	2ee-	4dd]
8B-	8c	.	.	8B-	.	.
8A	4f	.	2cc	8A	.	2cc
8F	.	.	.	8F	.	.
8B-	4f	8dd	.	8B-	8dd	.
8c	.	8ee-	.	8c	8ee-	.
8d	8r	[4ff	8b-	8d	[4ff	8b-
8D	8f	.	8a	8D	.	8a
=26	=26	=26	=26	=26	=26	=26
8E-	4B-	8ff]	4.g	8E-	8ff]	4.g
8F	.	8b-	.	8F	8b-	.
8G	8r	4.ee-	.	8G	4.ee-	.
8E-	8g	.	8gg	8E-	.	8gg
8F	4c	.	8aa	8F	.	8aa
8A	.	8ff	8ff	8A	8ff	8ff
8B-	8r	8dd	[4bb-	8B-	8dd	[4bb-
8E-	8g	8cc	.	8E-	8cc	.
=27	=27	=27	=27	=27	=27	=27
8F	4f	4dd	4bb-]	8F	4dd	4bb-]
8E-	.	.	.	8E-	.	.
8F	4f	4cc	4aa	8F	4cc	4aa
8FF	.	.	.	8FF	.	.
8BB-	4f	8dd	4bb-	8BB-	8dd	4bb-
8C	.	8f	.	8C	8f	.
8D	4r	4b-	8r	8D	4b-	8r
8BB-	.	.	8ff	8BB-	.	8ff
=28	=28	=28	=28	=28	=28	=28
4E-	4b-	4r	8gg	4E-	4r	8gg
.	.	.	8b-	.	.	8b-
4D	4r	4b-	8ff	4D	4b-	8ff
.	.	.	8b-	.	.	8b-
4E-	4b-	4r	8gg	4E-	4r	8gg
.	.	.	8b-	.	.	8b-
4D	4r	4b-	8ff	4D	4b-	8ff
.	.	.	8b-	.	.	8b-
=29	=29	=29	=29	=29	=29	=29
4E-	4e-	4b-	4gg	4E-	4b-	4gg
4r	4r	4r	4r	4r	4r	4r
4F	4c	4ee-	4a	4F	4ee-	4a
4BB-	8d	4dd	[4b-	4BB-	4dd	[4b-
.	8e-	.	.	.	.	.
=30	=30	=30	=30	=30	=30	=30
4F	4.f	2cc	4b-]	4F	2cc	4b-]
4FF	.	.	4a	4FF	.	4a
.	8f	.	.	.	.	.
4BB-	4d	4b-	4b-	4BB-	4b-	4b-
4r	4r	4r	4r	4r	4r	4r
=31	=31	=31	=31	=31	=31	=31
4F	4c	4a	4ee-	4F	4a	4ee-
4BB-	8d	2b-	4dd	4BB-	2b-	4dd
.	8e-	.	.	.	.	.
4F	2f	.	2cc	4F	.	2cc
4FF	.	4a	.	4FF	4a	.
=32	=32	=32	=32	=32	=32	=32
8r	4f	8r	16dd	8r	8r	16dd
.	.	.	16ff	.	.	16ff
8B-	.	8b-	16dd	8B-	8b-	16dd
.	.	.	16ff	.	.	16ff
8A	4f	4ff	16cc	8A	4ff	16cc
.	.	.	16ff	.	.	16ff
8F	.	.	16cc	8F	.	16cc
.	.	.	16ff	.	.	16ff
8B-	4f	8r	16dd	8B-	8r	16dd
.	.	.	16ff	.	.	16ff
8BB-	.	8b-	16dd	8BB-	8b-	16dd
.	.	.	16ff	.	.	16ff
8F	4f	8a	4cc	8F	8a	16cc
.	.	.	.	.	.	16ff
8FF	.	8f	.	8FF	8f	16cc
.	.	.	.	.	.	16ff
=33	=33	=33	=33	=33	=33	=33
1r	1r	1r	1r	8r	8r	16dd
.	.	.	.	.	.	16ff
.	.	.	.	8B-	8b-	16dd
.	.	.	.	.	.	16ff
.	.	.	.	8A	4ff	16cc
.	.	.	.	.	.	16ff
.	.	.	.	8F	.	16cc
.	.	.	.	.	.	16ff
.	.	.	.	8B-	8r	16dd
.	.	.	.	.	.	16ff
.	.	.	.	8BB-	8b-	16dd
.	.	.	.	.	.	16ff
.	.	.	.	8F	8a	16cc
.	.	.	.	.	.	16ff
.	.	.	.	8FF	8f	16cc
.	.	.	.	.	.	16ff
=34	=34	=34	=34	=34	=34	=34
8r	4g	8r	16ee-	8r	8r	16ee-
.	.	.	16gg	.	.	16gg
8c	.	8cc	16ee-	8c	8cc	16ee-
.	.	.	16gg	.	.	16gg
8B	4g	4gg	16dd	8B	4gg	16dd
.	.	.	16gg	.	.	16gg
8G	.	.	16dd	8G	.	16dd
.	.	.	16gg	.	.	16gg
8c	4g	8r	16ee-	8c	8r	16ee-
.	.	.	16gg	.	.	16gg
8C	.	8cc	16ee-	8C	8cc	16ee-
.	.	.	16gg	.	.	16gg
8G	4g	8b	4dd	8G	8b	16dd
.	.	.	.	.	.	16gg
8GG	.	8g	.	8GG	8g	16dd
.	.	.	.	.	.	16gg
=35	=35	=35	=35	=35	=35	=35
1r	1r	1r	1r	8r	8r	16ee-
.	.	.	.	.	.	16gg
.	.	.	.	8c	8cc	16ee-
.	.	.	.	.	.	16gg
.	.	.	.	8B	4gg	16dd
.	.	.	.	.	.	16gg
.	.	.	.	8G	.	16dd
.	.	.	.	.	.	16gg
.	.	.	.	8c	8r	16ee-
.	.	.	.	.	.	16gg
.	.	.	.	8C	8cc	16ee-
.	.	.	.	.	.	16gg
.	.	.	.	8G	8b	16dd
.	.	.	.	.	.	16gg
.	.	.	.	8GG	8g	16dd
.	.	.	.	.	.	16gg
=36	=36	=36	=36	=36	=36	=36
8r	4a	8r	16ff	8r	8r	16ff
.	.	.	16aa	.	.	16aa
8d	.	8dd	16ff	8d	8dd	16ff
.	.	.	16aa	.	.	16aa
8c#	4a	4aa	16ee	8c#	4aa	16ee
.	.	.	16aa	.	.	16aa
8A	.	.	16ee	8A	.	16ee
.	.	.	16aa	.	.	16aa
8d	4a	8r	16ff	8d	8r	16ff
.	.	.	16aa	.	.	16aa
8D	.	8dd	16ff	8D	8dd	16ff
.	.	.	16aa	.	.	16aa
8A	4a	8cc#	4ee	8A	8cc#	16ee
.	.	.	.	.	.	16aa
8AA	.	8a	.	8AA	8a	16ee
.	.	.	.	.	.	16aa
=37	=37	=37	=37	=37	=37	=37
1r	1r	1r	1r	8r	8r	16ff
.	.	.	.	.	.	16aa
.	.	.	.	8d	8dd	16ff
.	.	.	.	.	.	16aa
.	.	.	.	8c#	4aa	16ee
.	.	.	.	.	.	16aa
.	.	.	.	8A	.	16ee
.	.	.	.	.	.	16aa
.	.	.	.	8d	8r	16ff
.	.	.	.	.	.	16aa
.	.	.	.	8D	8dd	16ff
.	.	.	.	.	.	16aa
.	.	.	.	8A	8cc#	16ee
.	.	.	.	.	.	16aa
.	.	.	.	8AA	8a	16ee
.	.	.	.	.	.	16aa
=38	=38	=38	=38	=38	=38	=38
4D	4f	4b-	4ff	4D	8r	16ff
.	.	.	.	.	.	16bb-
.	.	.	.	.	8ff	16ff
.	.	.	.	.	.	16bb-
4r	4r	4r	4r	4r	4bb-	16ff
.	.	.	.	.	.	16bb-
.	.	.	.	.	.	16ff
.	.	.	.	.	.	16bb-
4E-	4e-	4b-	4gg	4E-	8r	16gg
.	.	.	.	.	.	16bb-
.	.	.	.	.	8b-	16gg
.	.	.	.	.	.	16bb-
4r	4r	4r	4r	4r	8ee-	16gg
.	.	.	.	.	.	16bb-
.	.	.	.	.	8e-	16gg
.	.	.	.	.	.	16bb-
=39	=39	=39	=39	=39	=39	=39
4E	4g	4cc	4gg	4E	8r	16gg
.	.	.	.	.	.	16ccc
.	.	.	.	.	8ee	16gg
.	.	.	.	.	.	16ccc
4r	4r	4r	4r	4r	4ccc	16gg
.	.	.	.	.	.	16ccc
.	.	.	.	.	.	16gg
.	.	.	.	.	.	16ccc
4F	4f	4cc	4aa	4F	8r	16gg
.	.	.	.	.	.	16aa
.	.	.	.	.	8cc	16gg
.	.	.	.	.	.	16aa
4r	4r	4r	4r	4r	8ff	16ff
.	.	.	.	.	.	16ddd
.	.	.	.	.	8f	16ff
.	.	.	.	.	.	16ddd
=40	=40	=40	=40	=40	=40	=40
2.r	2.r	2..r	2..r	4G	4b-	16ee-
.	.	.	.	.	.	16ddd
.	.	.	.	.	.	16ee-
.	.	.	.	.	.	16ddd
.	.	.	.	4A	4cc	16ee-
.	.	.	.	.	.	16ccc
.	.	.	.	.	.	16ee-
.	.	.	.	.	.	16ccc
.	.	.	.	4B-	4f	16dd
.	.	.	.	.	.	16ccc
.	.	.	.	.	.	16dd
.	.	.	.	.	.	16ccc
4D	4f	.	.	4r	8r	16dd
.	.	.	.	.	.	16bb-
.	.	8dd	8dd	.	8dd	16dd
.	.	.	.	.	.	16bb-
=41	=41	=41	=41	=41	=41	=41
4E-	4g	8ee-	8ee-	4E-	8ee-	16cc
.	.	.	.	.	.	16bb-
.	.	8cc	8cc	.	8cc	16cc
.	.	.	.	.	.	16bb-
4F	4f	8ff	8ff	4F	8ff	16ff
.	.	.	.	.	.	16aa
.	.	8f	8f	.	8f	16ff
.	.	.	.	.	.	16aa
4BB-	4f	4b-	4b-	4BB-	4b-	16dd
.	.	.	.	.	.	16bb-
.	.	.	.	.	.	16dd
.	.	.	.	.	.	16bb-
4r	4r	4r	4r	4r	4r	16ff
.	.	.	.	.	.	16ddd
.	.	.	.	.	.	16ff
.	.	.	.	.	.	16ddd
=42	=42	=42	=42	=42	=42	=42
2.r	2.r	2..r	2..r	4G	4b-	16ee-
.	.	.	.	.	.	16ddd
.	.	.	.	.	.	16ee-
.	.	.	.	.	.	16ddd
.	.	.	.	4A	4cc	16ee-
.	.	.	.	.	.	16ccc
.	.	.	.	.	.	16ee-
.	.	.	.	.	.	16ccc
.	.	.	.	4B-	4f	16dd
.	.	.	.	.	.	16ccc
.	.	.	.	.	.	16dd
.	.	.	.	.	.	16ccc
4D	4f	.	.	4r	8r	16dd
.	.	.	.	.	.	16bb-
.	.	8d	8d	.	8d	16dd
.	.	.	.	.	.	16bb-
=43	=43	=43	=43	=43	=43	=43
4E-	4g	8e-	8e-	4E-	8e-	16cc
.	.	.	.	.	.	16bb-
.	.	8c	8c	.	8c	16cc
.	.	.	.	.	.	16bb-
4F	4f	8f	8f	4F	8f	16ff
.	.	.	.	.	.	16aa
.	.	8f	8f	.	8f	16ff
.	.	.	.	.	.	16aa
4BB-	4f	4B-	4B-	4BB-	16b-	16dd
.	.	.	.	.	16dd	16ff
.	.	.	.	.	16b-	16dd
.	.	.	.	.	16dd	16ff
4r	4r	4r	4r	4r	16b-	16dd
.	.	.	.	.	16dd	16ff
.	.	.	.	.	16b-	16dd
.	.	.	.	.	16dd	16ff
=44	=44	=44	=44	=44	=44	=44
1r	1r	1r	1r	4f	16a	16cc
.	.	.	.	.	16cc	16ff
.	.	.	.	.	16a	16cc
.	.	.	.	.	16cc	16ff
.	.	.	.	4F	16a	16cc
.	.	.	.	.	16cc	16ff
.	.	.	.	.	16a	16cc
.	.	.	.	.	16cc	16ff
.	.	.	.	4B-	16b-	16dd
.	.	.	.	.	16dd	16ff
.	.	.	.	.	16b-	16dd
.	.	.	.	.	16dd	16ff
.	.	.	.	4BB-	16b-	16dd
.	.	.	.	.	16dd	16ff
.	.	.	.	.	16b-	16dd
.	.	.	.	.	16dd	16ff
=45	=45	=45	=45	=45	=45	=45
4F	4f	4a	4cc	4F	16a	16cc
.	.	.	.	.	16cc	16ff
.	.	.	.	.	16a	16cc
.	.	.	.	.	16cc	16ff
4r	4r	4r	4r	4r	16a	16cc
.	.	.	.	.	16cc	16ff
.	.	.	.	.	16a	16cc
.	.	.	.	.	16cc	16ff
4BB-	4f	4b-	4dd	4BB-	16b-	16dd
.	.	.	.	.	16dd	16ff
.	.	.	.	.	16b-	16dd
.	.	.	.	.	16dd	16ff
4r	4r	4r	4r	4r	16b-	16dd
.	.	.	.	.	16dd	16ff
.	.	.	.	.	16b-	16dd
.	.	.	.	.	16dd	16ff
=46	=46	=46	=46	=46	=46	=46
1r	1r	1r	1r	4d	16ff#	16cc
.	.	.	.	.	16aa	16ff#
.	.	.	.	.	16ff#	16cc
.	.	.	.	.	16aa	16ff#
.	.	.	.	4D	16ff#	16cc
.	.	.	.	.	16aa	16ff#
.	.	.	.	.	16ff#	16cc
.	.	.	.	.	16aa	16ff#
.	.	.	.	4G	16gg	16b-
.	.	.	.	.	16bb-	16gg
.	.	.	.	.	16gg	16b-
.	.	.	.	.	16bb-	16gg
.	.	.	.	4GG	16gg	16b-
.	.	.	.	.	16bb-	16gg
.	.	.	.	.	16gg	16b-
.	.	.	.	.	16bb-	16gg
=47	=47	=47	=47	=47	=47	=47
4D	4d	4ff#	4aa	4D	16ff#	16dd
.	.	.	.	.	16aa	16aa
.	.	.	.	.	16ff#	16dd
.	.	.	.	.	16aa	16aa
4r	4r	4r	4r	4r	16ff#	16dd
.	.	.	.	.	16aa	16aa
.	.	.	.	.	16ff#	16dd
.	.	.	.	.	16aa	16aa
4GG	4d	4gg	4bb-	4GG	16gg	16dd
.	.	.	.	.	16bb-	16bb-
.	.	.	.	.	16gg	16dd
.	.	.	.	.	16bb-	16bb-
4r	4r	4r	4r	4r	16gg	16dd
.	.	.	.	.	16bb-	16bb-
.	.	.	.	.	16gg	16dd
.	.	.	.	.	16bb-	16bb-
=48	=48	=48	=48	=48	=48	=48
2r	2r	2r	2r	4BB-	16b-	16dd
.	.	.	.	.	16gg	16ddd
.	.	.	.	.	16b-	16dd
.	.	.	.	.	16gg	16ddd
.	.	.	.	4r	16b-	16dd
.	.	.	.	.	16gg	16ddd
.	.	.	.	.	16b-	16dd
.	.	.	.	.	16gg	16ddd
4C	4g	4gg	4ee	4C	16cc	16ee
.	.	.	.	.	16gg	16ddd
.	.	.	.	.	16cc	16ee
.	.	.	.	.	16gg	16ddd
4r	4r	4r	4r	4r	16cc	16ee
.	.	.	.	.	16gg	16ddd
.	.	.	.	.	16cc	16ee
.	.	.	.	.	16gg	16ddd
=49	=49	=49	=49	=49	=49	=49
2r	2r	2r	2r	4C	16cc	16ee
.	.	.	.	.	16aa	16ccc
.	.	.	.	.	16cc	16ee
.	.	.	.	.	16aa	16ccc
.	.	.	.	4r	16cc	16ee
.	.	.	.	.	16aa	16ccc
.	.	.	.	.	16cc	16ee
.	.	.	.	.	16aa	16ccc
4D	4dd	4aa	4ff#	4D	16dd	16ff#
.	.	.	.	.	16ff#	16ccc
.	.	.	.	.	16dd	16ff#
.	.	.	.	.	16ff#	16ccc
4GG	4d	4bb-	[4gg	4GG	16dd	16gg
.	.	.	.	.	16gg	16bb-
.	.	.	.	.	16dd	16gg
.	.	.	.	.	16gg	16bb-
=50	=50	=50	=50	=50	=50	=50
4D	2d	2aa	4gg]	4D	16dd	16gg
.	.	.	.	.	16gg	16aa
.	.	.	.	.	16dd	16gg
.	.	.	.	.	16gg	16aa
4DD	.	.	4ff#	4DD	16dd	16ff#
.	.	.	.	.	16ff#	16aa
.	.	.	.	.	16dd	16ff#
.	.	.	.	.	16ff#	16aa
4GG	4d	4gg	4gg	4GG	16dd	16gg
.	.	.	.	.	16gg	16bb-
.	.	.	.	.	16dd	16gg
.	.	.	.	.	16gg	16bb-
4r	4r	4r	4r	4r	16dd	16gg
.	.	.	.	.	16gg	16bb-
.	.	.	.	.	16dd	16gg
.	.	.	.	.	16gg	16bb-
=51	=51	=51	=51	=51	=51	=51
1r	1r	1r	1r	4d	16dd	16ff#
.	.	.	.	.	16ff#	16aa
.	.	.	.	.	16dd	16ff#
.	.	.	.	.	16ff#	16aa
.	.	.	.	4D	16dd	16ff#
.	.	.	.	.	16ff#	16aa
.	.	.	.	.	16dd	16ff#
.	.	.	.	.	16ff#	16aa
.	.	.	.	4G	16dd	16gg
.	.	.	.	.	16gg	16bb-
.	.	.	.	.	16dd	16gg
.	.	.	.	.	16gg	16bb-
.	.	.	.	4r	16dd	16gg
.	.	.	.	.	16gg	16bb-
.	.	.	.	.	16dd	16gg
.	.	.	.	.	16gg	16bb-
=52	=52	=52	=52	=52	=52	=52
4c	4c	4ee-	4ff	4c	16cc	16ee
.	.	.	.	.	16ee	16bb-
.	.	.	.	.	16cc	16ee
.	.	.	.	.	16ee	16bb-
4C	4r	4r	4r	4C	16cc	16ee
.	.	.	.	.	16ee	16bb-
.	.	.	.	.	16cc	16ee
.	.	.	.	.	16ee	16bb-
4F	4c	4ff	4aa	4F	16cc	16ff
.	.	.	.	.	16ff	16aa
.	.	.	.	.	16cc	16ff
.	.	.	.	.	16ff	16aa
4r	4r	4r	4r	4r	16cc	16ff
.	.	.	.	.	16ff	16aa
.	.	.	.	.	16cc	16ff
.	.	.	.	.	16ff	16aa
=53	=53	=53	=53	=53	=53	=53
2r	2r	2r	2r	4B-	16b-	16dd
.	.	.	.	.	16dd	16aa
.	.	.	.	.	16b-	16dd
.	.	.	.	.	16dd	16aa
.	.	.	.	4r	16b-	16dd
.	.	.	.	.	16dd	16aa
.	.	.	.	.	16b-	16dd
.	.	.	.	.	16dd	16aa
4E	4g	4dd	4gg	4E	16gg	16dd
.	.	.	.	.	16bb-	16gg
.	.	.	.	.	16gg	16dd
.	.	.	.	.	16bb-	16gg
4r	4r	4r	4r	4r	16gg	16dd
.	.	.	.	.	16bb-	16gg
.	.	.	.	.	16gg	16dd
.	.	.	.	.	16bb-	16gg
=54	=54	=54	=54	=54	=54	=54
2r	2r	2r	2r	4A	16ee	16cc#
.	.	.	.	.	16aa	16gg
.	.	.	.	.	16ee	16cc#
.	.	.	.	.	16aa	16gg
.	.	.	.	4r	16ee	16cc#
.	.	.	.	.	16aa	16gg
.	.	.	.	.	16ee	16cc#
.	.	.	.	.	16aa	16gg
4D	4a	4a	4ff	4D	16ff	16dd
.	.	.	.	.	16aa	16ff
.	.	.	.	.	16ff	16dd
.	.	.	.	.	16aa	16ff
4r	4r	4r	4r	4r	16ff	16dd
.	.	.	.	.	16aa	16ff
.	.	.	.	.	16ff	16dd
.	.	.	.	.	16aa	16ff
=55	=55	=55	=55	=55	=55	=55
4G	4b-	4dd	4gg	4G	16gg	16dd
.	.	.	.	.	16bb-	16gg
.	.	.	.	.	16gg	16dd
.	.	.	.	.	16bb-	16gg
4GG	4dd	4gg	4bb-	4GG	16gg	16dd
.	.	.	.	.	16bb-	16bb-
.	.	.	.	.	16gg	16dd
.	.	.	.	.	16bb-	16bb-
4AA	4a	4cc#	4ee	4AA	4ee	16cc#
.	.	.	.	.	.	16ee
.	.	.	.	.	.	16cc#
.	.	.	.	.	.	16ee
4r	4r	4r	4r	4r	4aa	16dd
.	.	.	.	.	.	16ff
.	.	.	.	.	.	16dd
.	.	.	.	.	.	16ff
=56	=56	=56	=56	=56	=56	=56
4r	4r	4r	4r	4r	4cc#	16ee
.	.	.	.	.	.	16gg
.	.	.	.	.	.	16ee
.	.	.	.	.	.	16gg
4D	4a	4dd	4ff	4D	4aa	16dd
.	.	.	.	.	.	16ff
.	.	.	.	.	.	16dd
.	.	.	.	.	.	16ff
4A	4a	4cc#	4ee	4A	4a	16cc#
.	.	.	.	.	.	16ee
.	.	.	.	.	.	16cc#
.	.	.	.	.	.	16ee
4r	4r	4r	4r	4r	4aa	16dd
.	.	.	.	.	.	16ff
.	.	.	.	.	.	16dd
.	.	.	.	.	.	16ff
=57	=57	=57	=57	=57	=57	=57
4r	4r	4r	4r	4r	4cc#	16ee
.	.	.	.	.	.	16gg
.	.	.	.	.	.	16ee
.	.	.	.	.	.	16gg
4D	4a	4dd	4ff	4D	4aa	16dd
.	.	.	.	.	.	16ff
.	.	.	.	.	.	16dd
.	.	.	.	.	.	16ff
4A	4a	4cc#	4ee	4A	4a	16cc#
.	.	.	.	.	.	16ee
.	.	.	.	.	.	16cc#
.	.	.	.	.	.	16ee
4r	4r	8r	8r	4r	8r	16a
.	.	.	.	.	.	16aa
.	.	8f	8f	.	8f	16a
.	.	.	.	.	.	16aa
=58	=58	=58	=58	=58	=58	=58
2.r	2.r	4g	4g	2.r	4g	16b
.	.	.	.	.	.	16aa
.	.	.	.	.	.	16b
.	.	.	.	.	.	16aa
.	.	8r	8r	.	8r	16b
.	.	.	.	.	.	16gg
.	.	8g	8g	.	8g	16b
.	.	.	.	.	.	16gg
.	.	4a	4a	.	4a	16cc#
.	.	.	.	.	.	16gg
.	.	.	.	.	.	16cc#
.	.	.	.	.	.	16gg
4d	4a	8r	8r	4d	8r	16dd
.	.	.	.	.	.	16ff
.	.	8f	8f	.	8f	16dd
.	.	.	.	.	.	16ff
=59	=59	=59	=59	=59	=59	=59
4G	4b-	8g	8g	4G	8g	16dd
.	.	.	.	.	.	16ee
.	.	8e	8e	.	8e	16dd
.	.	.	.	.	.	16ee
4A	4a	8a	8a	4A	8a	16cc#
.	.	.	.	.	.	16ee
.	.	8A	8A	.	8A	16cc#
.	.	.	.	.	.	16ee
4D	4a	4d	4d	4D	8d	16dd
.	.	.	.	.	.	16ff
.	.	.	.	.	8e	16dd
.	.	.	.	.	.	16ff
4r	4r	8r	8r	4r	8f	16dd
.	.	.	.	.	.	16aa
.	.	8f	8f	.	8d	16dd
.	.	.	.	.	.	16aa
=60	=60	=60	=60	=60	=60	=60
2.r	2.r	4g	4g	2.r	8g	16dd
.	.	.	.	.	.	16bb-
.	.	.	.	.	8a	16dd
.	.	.	.	.	.	16bb-
.	.	8r	8r	.	8b-	16gg
.	.	.	.	.	.	16bb-
.	.	8g	8g	.	8g	16gg
.	.	.	.	.	.	16bb-
.	.	4a	4a	.	8cc#	16gg
.	.	.	.	.	.	16aa
.	.	.	.	.	8a	16gg
.	.	.	.	.	.	16aa
4D	4A	8r	8r	4D	8dd	16ff
.	.	.	.	.	.	16ddd
.	.	8d	8d	.	8f	16ff
.	.	.	.	.	.	16ddd
=61	=61	=61	=61	=61	=61	=61
4GG	4B-	4G	4G	4GG	8g	16ee
.	.	.	.	.	.	16ddd
.	.	.	.	.	8e	16ee
.	.	.	.	.	.	16ddd
4AA	4A	4A	4A	4AA	8a	16ee
.	.	.	.	.	.	16ccc#
.	.	.	.	.	8A	16ee
.	.	.	.	.	.	16ccc#
4DD	4A	4d	4d	4DD	4d	4dd
4r	4r	4r	4r	4r	4r	4r
=62	=62	=62	=62	=62	=62	=62
8r	4f	8r	16dd	8r	8r	16dd
.	.	.	16ff	.	.	16ff
8B-	.	8b-	16dd	8B-	8b-	16dd
.	.	.	16ff	.	.	16ff
8A	4f	4ff	16cc	8A	4ff	16cc
.	.	.	16ff	.	.	16ff
8F	.	.	16cc	8F	.	16cc
.	.	.	16ff	.	.	16ff
8B-	4f	8r	16dd	8B-	8r	16dd
.	.	.	16ff	.	.	16ff
8BB-	.	8b-	16dd	8BB-	8b-	16dd
.	.	.	16ff	.	.	16ff
8F	4f	8a	4cc	8F	8a	16cc
.	.	.	.	.	.	16ff
8FF	.	8f	.	8FF	8f	16cc
.	.	.	.	.	.	16ff
=63	=63	=63	=63	=63	=63	=63
1r	1r	1r	1r	8r	8r	16g
.	.	.	.	.	.	16b-
.	.	.	.	8E-	8e-	16g
.	.	.	.	.	.	16b-
.	.	.	.	8D	4b-	16f
.	.	.	.	.	.	16b-
.	.	.	.	8BB-	.	16f
.	.	.	.	.	.	16b-
.	.	.	.	8E-	8r	16g
.	.	.	.	.	.	16b-
.	.	.	.	8EE-	8e-	16g
.	.	.	.	.	.	16b-
.	.	.	.	4BB-	8d	16f
.	.	.	.	.	.	16b-
.	.	.	.	.	8B-	16f
.	.	.	.	.	.	16b-
=64	=64	=64	=64	=64	=64	=64
8r	4g	8r	16ee-	8r	8r	16ee-
.	.	.	16gg	.	.	16gg
8c	.	8cc	16ee-	8c	8cc	16ee-
.	.	.	16gg	.	.	16gg
8B	4g	4gg	16dd	8B	4gg	16dd
.	.	.	16gg	.	.	16gg
8G	.	.	16dd	8G	.	16dd
.	.	.	16gg	.	.	16gg
8c	4g	8r	16ee-	8c	8r	16ee-
.	.	.	16gg	.	.	16gg
8C	.	8cc	16ee-	8C	8cc	16ee-
.	.	.	16gg	.	.	16gg
8G	4g	8b	4dd	8G	8b	16dd
.	.	.	.	.	.	16gg
8GG	.	8g	.	8GG	8g	16dd
.	.	.	.	.	.	16gg
=65	=65	=65	=65	=65	=65	=65
1r	1r	1r	1r	8r	8r	16a
.	.	.	.	.	.	16cc
.	.	.	.	8F	8f	16a
.	.	.	.	.	.	16cc
.	.	.	.	8E	4cc	16g
.	.	.	.	.	.	16cc
.	.	.	.	8C	.	16g
.	.	.	.	.	.	16cc
.	.	.	.	8F	8r	16a
.	.	.	.	.	.	16cc
.	.	.	.	8FF	8f	16a
.	.	.	.	.	.	16cc
.	.	.	.	8C	8e	16g
.	.	.	.	.	.	16cc
.	.	.	.	8CC	8c	16g
.	.	.	.	.	.	16cc
=66	=66	=66	=66	=66	=66	=66
8r	4a	8r	16ff	8r	8r	16ff
.	.	.	16aa	.	.	16aa
8d	.	8dd	16ff	8d	8dd	16ff
.	.	.	16aa	.	.	16aa
8c#	4a	4aa	16ee	8c#	4aa	16ee
.	.	.	16aa	.	.	16aa
8A	.	.	16ee	8A	.	16ee
.	.	.	16aa	.	.	16aa
8d	4a	8r	16ff	8d	8r	16ff
.	.	.	16aa	.	.	16aa
8D	.	8dd	16ff	8D	8dd	16ff
.	.	.	16aa	.	.	16aa
8A	4a	8cc#	4ee	8A	8cc#	16ee
.	.	.	.	.	.	16aa
8AA	.	8a	.	8AA	8a	16ee
.	.	.	.	.	.	16aa
=67	=67	=67	=67	=67	=67	=67
1r	1r	1r	1r	8r	8r	16b-
.	.	.	.	.	.	16dd
.	.	.	.	8G	8g	16b-
.	.	.	.	.	.	16dd
.	.	.	.	8F#	4dd	16a
.	.	.	.	.	.	16dd
.	.	.	.	8D	.	16a
.	.	.	.	.	.	16dd
.	.	.	.	8G	8r	16b-
.	.	.	.	.	.	16dd
.	.	.	.	8GG	8g	16b-
.	.	.	.	.	.	16dd
.	.	.	.	8D	8f#	16a
.	.	.	.	.	.	16dd
.	.	.	.	8DD	8d	16a
.	.	.	.	.	.	16dd
=68	=68	=68	=68	=68	=68	=68
4G	4g	4b-	16ee-	4G	4b-	16ee-
.	.	.	16ff	.	.	16ff
.	.	.	16ee-	.	.	16ee-
.	.	.	16ff	.	.	16ff
4F	4d	4a	16dd	4F	4a	16dd
.	.	.	16ee-	.	.	16ee-
.	.	.	16dd	.	.	16dd
.	.	.	16ee-	.	.	16ee-
4E-	4e-	4g	16cc	4E-	4g	16cc
.	.	.	16dd	.	.	16dd
.	.	.	16cc	.	.	16cc
.	.	.	16dd	.	.	16dd
4D	4B-	4f	16b-	4D	4f	16b-
.	.	.	16cc	.	.	16cc
.	.	.	16b-	.	.	16b-
.	.	.	16cc	.	.	16cc
=69	=69	=69	=69	=69	=69	=69
4C	4c	4e-	16a	4C	4e-	16a
.	.	.	16cc	.	.	16cc
.	.	.	16b-	.	.	16b-
.	.	.	16a	.	.	16a
4BB-	4f	4d	16b-	4BB-	4d	16b-
.	.	.	16dd	.	.	16dd
.	.	.	16cc	.	.	16cc
.	.	.	16b-	.	.	16b-
4F	4f	4a	8cc	4F	4a	8cc
.	.	.	8f	.	.	8f
8r	8r	8r	[4ff	8r	8r	[4ff
8D	8B-	8ff	.	8D	8ff	.
=70	=70	=70	=70	=70	=70	=70
8E-	4B-	4.gg	8ff]	8E-	4.gg	8ff]
8F	.	.	8b-	8F	.	8b-
8G	8r	.	4.ee-	8G	.	4.ee-
8E-	8e-	8gg	.	8E-	8gg	.
8F	4c	8aa	.	8F	8aa	.
8F	.	8ff	8ff	8F	8ff	8ff
8G	4B-	[4bb-	8dd	8G	[4bb-	8dd
8E-	.	.	8cc	8E-	.	8cc
=71	=71	=71	=71	=71	=71	=71
8F	4.f	4bb-]	4dd	8F	4bb-]	4dd
8E-	.	.	.	8E-	.	.
8F	.	4aa	4cc	8F	4aa	4cc
8FF	8f	.	.	8FF	.	.
8BB-	4d	4bb-	4.b-	8BB-	4bb-	4.b-
8C	.	.	.	8C	.	.
8D	8r	[4ff	.	8D	[4ff	.
8BB-	8d	.	8ff	8BB-	.	8ff
=72	=72	=72	=72	=72	=72	=72
8E-	4B-	8ff]	4.gg	8E-	8ff]	4.gg
8F	.	8b-	.	8F	8b-	.
8G	8r	8ee-	.	8G	8ee-	.
8E-	8e-	8gg	8gg	8E-	8gg	8gg
4F	4c	4cc	4a	4F	4cc	4a
4r	4r	4r	4r	4r	4r	4r
=73	=73	=73	=73	=73	=73	=73
4.r	4.r	4.r	4.r	4.r	4.r	4.r
8B-	8B-	8dd	8ff	8B-	8dd	8ff
8E-	4.B-	8g	4ee-	8E-	8g	4ee-
8F	.	8a	.	8F	8a	.
8G	.	[4b-	8dd	8G	[4b-	8dd
8E-	8g	.	8cc	8E-	.	8cc
=74	=74	=74	=74	=74	=74	=74
4F	4.f	4b-]	4dd	4F	4b-]	4dd
4FF	.	4a	4cc	4FF	4a	4cc
.	8f	.	.	.	.	.
4BB-	4d	4b-	4b-	4BB-	4b-	4b-
4r	4r	4r	4r	4r	4r	4r
=75	=75	=75	=75	=75	=75	=75
4AA	4f	4f	4cc	4AA	4f	4cc
4r	4r	4r	4r	4r	4r	4r
4GG	4g	4e	4b-	4GG	4e	4b-
4r	4r	4r	4r	4r	4r	4r
=76	=76	=76	=76	=76	=76	=76
1FF	1c	1f	1a	1FF	1f	1a
==	==	==	==	==	==	==
*-	*-	*-	*-	*-	*-	*-
!!!RWG: This file only contains pitch and duration data.
!!!RWG: Transposing instruments are not transposed.
!!!RWG: Durations of rests and tied notes may be interpreted.
!!!RWG: Key is interpreted using the Humdrum key tool.
!!!SCA: 
!!!YOR: Chrysander Edition
!!!AGN: concerto grosso
!!!AFT: stage1
!!!ENC: F. Bennion
!!!END: 1997/04/15
!!!AST: baroque
!!!YEC: Copyright 1994, Center for Computer Assisted Research in the Humanities
!!!YEM: Rights to all derivative electronic formats reserved.
!!!YEM: Refer to licensing agreement for further details.
!!!YEN: United States of America
!!!EED: W.B. Hewlett
!!!KEY: 3158588049
!!!EMD: Converted from MuseData to Humdrum Aug 9, 1999, by Bret Aarden using muse2kern.
!!!VTS: 2550355281
